images/icon-discord.svg

<svg width="29" height="22" viewBox="0 0 29 22" fill="none" xmlns="http://www.w3.org/2000/svg">
<path opacity="0.6" d="M23.8486 2.20217C22.0712 1.36067 20.1708 0.749109 18.184 0.400879C17.94 0.847298 17.6549 1.44774 17.4583 1.92539C15.3463 1.60397 13.2536 1.60397 11.1804 1.92539C10.9839 1.44774 10.6924 0.847298 10.4462 0.400879C8.45721 0.749109 6.5546 1.36292 4.77726 2.20663C1.19235 7.68854 0.220534 13.0343 0.706441 18.3041C3.08415 20.1009 5.38843 21.1924 7.65382 21.9067C8.21316 21.1277 8.71202 20.2996 9.14177 19.4269C8.32329 19.1122 7.53937 18.7238 6.79865 18.2729C6.99516 18.1256 7.18738 17.9716 7.37308 17.8131C11.8909 19.9514 16.7997 19.9514 21.2635 17.8131C21.4514 17.9716 21.6436 18.1256 21.838 18.2729C21.0951 18.726 20.309 19.1144 19.4905 19.4291C19.9203 20.2996 20.417 21.1299 20.9785 21.9089C23.246 21.1946 25.5525 20.1032 27.9302 18.3041C28.5003 12.195 26.9562 6.89838 23.8486 2.20217ZM9.75726 15.0632C8.40105 15.0632 7.28885 13.782 7.28885 12.2218C7.28885 10.6616 8.3773 9.3782 9.75726 9.3782C11.1373 9.3782 12.2494 10.6594 12.2257 12.2218C12.2278 13.782 11.1373 15.0632 9.75726 15.0632ZM18.8794 15.0632C17.5232 15.0632 16.4109 13.782 16.4109 12.2218C16.4109 10.6616 17.4994 9.3782 18.8794 9.3782C20.2593 9.3782 21.3715 10.6594 21.3478 12.2218C21.3478 13.782 20.2593 15.0632 18.8794 15.0632Z" fill="#F7F6FF"/>
</svg>

<svg xmlns="http://www.w3.org/2000/svg" width="29" height="22" fill="none"><path fill="#F7F6FF" d="M23.849 2.202A22.174 22.174 0 0 0 18.184.401c-.244.446-.53 1.047-.726 1.524a20.557 20.557 0 0 0-6.278 0 16.373 16.373 0 0 0-.734-1.524 22.099 22.099 0 0 0-5.669 1.806C1.192 7.689.221 13.034.707 18.304c2.377 1.797 4.681 2.888 6.947 3.603a17.527 17.527 0 0 0 1.488-2.48 14.556 14.556 0 0 1-2.343-1.154c.196-.147.388-.301.574-.46 4.518 2.138 9.427 2.138 13.89 0 .188.159.38.313.575.46-.743.453-1.529.841-2.348 1.156.43.87.927 1.7 1.489 2.48 2.267-.714 4.573-1.806 6.951-3.605.57-6.109-.974-11.406-4.081-16.102ZM9.757 15.063c-1.356 0-2.468-1.281-2.468-2.841 0-1.56 1.088-2.844 2.468-2.844s2.492 1.281 2.469 2.844c.002 1.56-1.089 2.841-2.469 2.841Zm9.122 0c-1.356 0-2.468-1.281-2.468-2.841 0-1.56 1.088-2.844 2.468-2.844s2.492 1.281 2.469 2.844c0 1.56-1.089 2.841-2.469 2.841Z" opacity=".6"/></svg>
